images/iqeon.svg

<svg height="250" viewBox="0 0 250 250" width="250" xmlns="http://www.w3.org/2000/svg" xmlns:xlink="http://www.w3.org/1999/xlink"><linearGradient id="a" gradientUnits="userSpaceOnUse" x1="24.81290725999" x2="73.7081157505" y1="179.36990897687" y2="94.68097307298"><stop offset="0" stop-color="#7bd8d7"/><stop offset="1" stop-color="#375fa2"/></linearGradient><linearGradient id="b" gradientUnits="userSpaceOnUse" x1="89.25138152156" x2="145.34723242545" y1="16.78679316201" y2="113.94760866955"><stop offset="0" stop-color="#8bf6de"/><stop offset="1" stop-color="#5393fb"/></linearGradient><linearGradient id="c" gradientUnits="userSpaceOnUse" x1="250.787502965" x2="49.10121891197" y1="91.14414866794" y2="232.36639830789"><stop offset="0" stop-color="#8dfbc6"/><stop offset="1" stop-color="#5393fb"/></linearGradient><path d="m13.332031 78.269531c6.441407-6.855469 16.949219-8.648437 25.421875-3.753906l87.433594 50.46875-87.398438 50.5c-8.472656 4.894531-19.015624 3.101563-25.421874-3.753906-.035157-.101563.035156-99.59375-.035157-93.460938zm0 0" fill="url(#a)"/><path d="m221.234375 52.433594c2.34375 8.816406-1.273437 18.464844-9.578125 23.21875l-85.433594 49.332031-87.433594-50.46875c-8.472656-4.894531-19.015624-3.101563-25.421874 3.753906.101562-10.988281 5.992187-21.082031 15.5-26.59375l80.199218-46.335937c9.613282-5.546875 21.429688-5.546875 31.039063 0zm0 0" fill="url(#b)"/><path d="m38.789062 175.484375 172.902344-99.832031c8.269532-4.789063 11.507813-14.402344 9.164063-23.21875 9.058593 5.648437 14.089843 15.605468 14.089843 26.351562v92.671875c0 11.089844-5.410156 21.355469-15.019531 26.902344l-79.992187 46.300781c-9.609375 5.546875-21.324219 5.546875-30.933594 0l-80.199219-46.335937c-9.507812-5.511719-15.398437-15.605469-15.503906-26.59375 6.441406 6.855469 16.984375 8.648437 25.492187 3.753906zm0 0" fill="url(#c)"/></svg>

<!-- Generator: Adobe Illustrator 22.0.0, SVG Export Plug-In . SVG Version: 6.00 Build 0)  -->
<svg xmlns="http://www.w3.org/2000/svg" xmlns:xlink="http://www.w3.org/1999/xlink" width="250px" height="250px" viewBox="0 0 250 250" version="1.1">
<defs>
<linearGradient id="linear0" gradientUnits="userSpaceOnUse" x1="72.026901" y1="520.674927" x2="213.9599" y2="274.839905" gradientTransform="matrix(0.344495,0,0,0.344495,0,0)">
<stop offset="0" style="stop-color:rgb(48.235294%,84.705883%,84.313726%);stop-opacity:1;"/>
<stop offset="1" style="stop-color:rgb(21.568628%,37.254903%,63.529414%);stop-opacity:1;"/>
</linearGradient>
<linearGradient id="linear1" gradientUnits="userSpaceOnUse" x1="259.078888" y1="48.728699" x2="421.91391" y2="330.76709" gradientTransform="matrix(0.344495,0,0,0.344495,0,0)">
<stop offset="0" style="stop-color:rgb(54.509807%,96.470588%,87.058824%);stop-opacity:1;"/>
<stop offset="1" style="stop-color:rgb(32.549021%,57.647061%,98.431373%);stop-opacity:1;"/>
</linearGradient>
<linearGradient id="linear2" gradientUnits="userSpaceOnUse" x1="727.985901" y1="264.573212" x2="142.531006" y2="674.513123" gradientTransform="matrix(0.344495,0,0,0.344495,0,0)">
<stop offset="0" style="stop-color:rgb(55.29412%,98.431373%,77.64706%);stop-opacity:1;"/>
<stop offset="1" style="stop-color:rgb(32.549021%,57.647061%,98.431373%);stop-opacity:1;"/>
</linearGradient>
</defs>
<g id="surface1">
<path style=" stroke:none;fill-rule:nonzero;fill:url(#linear0);" d="M 13.332031 78.269531 C 19.773438 71.414062 30.28125 69.621094 38.753906 74.515625 L 126.1875 124.984375 L 38.789062 175.484375 C 30.316406 180.378906 19.773438 178.585938 13.367188 171.730469 C 13.332031 171.628906 13.402344 72.136719 13.332031 78.269531 Z M 13.332031 78.269531 "/>
<path style=" stroke:none;fill-rule:nonzero;fill:url(#linear1);" d="M 221.234375 52.433594 C 223.578125 61.25 219.960938 70.898438 211.65625 75.652344 L 126.222656 124.984375 L 38.789062 74.515625 C 30.316406 69.621094 19.773438 71.414062 13.367188 78.269531 C 13.46875 67.28125 19.359375 57.1875 28.867188 51.675781 L 109.066406 5.339844 C 118.679688 -0.207031 130.496094 -0.207031 140.105469 5.339844 Z M 221.234375 52.433594 "/>
<path style=" stroke:none;fill-rule:nonzero;fill:url(#linear2);" d="M 38.789062 175.484375 L 211.691406 75.652344 C 219.960938 70.863281 223.199219 61.25 220.855469 52.433594 C 229.914062 58.082031 234.945312 68.039062 234.945312 78.785156 L 234.945312 171.457031 C 234.945312 182.546875 229.535156 192.8125 219.925781 198.359375 L 139.933594 244.660156 C 130.324219 250.207031 118.609375 250.207031 109 244.660156 L 28.800781 198.324219 C 19.292969 192.8125 13.402344 182.71875 13.296875 171.730469 C 19.738281 178.585938 30.28125 180.378906 38.789062 175.484375 Z M 38.789062 175.484375 "/>
</g>
</svg>
